src/assets/svgs/total-value-locked.svg

<svg width="100" height="100" viewBox="0 0 100 100" fill="none" xmlns="http://www.w3.org/2000/svg">
<g filter="url(#filter0_d_1_324)">
<rect x="30" y="25" width="40" height="40" rx="10" fill="#FF4267"/>
</g>
<path d="M50.3677 46.682V47.9787C50.8397 47.8987 51.0757 47.694 51.0757 47.364C51.0757 47.0127 50.689 46.8293 50.3677 46.682Z" fill="white"/>
<path d="M48.9819 44.2034C48.9819 44.5714 49.3146 44.736 49.6539 44.8854V43.6614C49.2059 43.7274 48.9819 43.908 48.9819 44.2034Z" fill="white"/>
<path d="M54.0002 39L52.0002 37L50.0002 39L48.0002 37L46.0002 39L43.3335 37V52.3333C43.3335 52.702 43.6322 53 44.0002 53H56.0002C56.3682 53 56.6668 52.702 56.6668 52.3333V37L54.0002 39ZM50.3675 49.2187V50.2867H49.6542V49.24C48.8068 49.2227 48.0635 49.0733 47.4248 48.792V47.4173C48.0248 47.714 48.9768 47.974 49.6542 48.016V46.4013C48.4615 45.9387 47.4148 45.49 47.4148 44.2033C47.4148 43.0347 48.4868 42.4853 49.6542 42.37V41.5727H50.3675V42.3487C51.1622 42.3833 51.8815 42.5433 52.5235 42.828L52.0342 44.0467C51.4928 43.8247 50.9368 43.6893 50.3675 43.6407V45.1773C51.6328 45.664 52.6435 46.1073 52.6435 47.2867C52.6435 48.53 51.6108 49.1047 50.3675 49.2187Z" fill="white"/>
<defs>
<filter id="filter0_d_1_324" x="0" y="0" width="100" height="100" filterUnits="userSpaceOnUse" color-interpolation-filters="sRGB">
<feFlood flood-opacity="0" result="BackgroundImageFix"/>
<feColorMatrix in="SourceAlpha" type="matrix" values="0 0 0 0 0 0 0 0 0 0 0 0 0 0 0 0 0 0 127 0" result="hardAlpha"/>
<feOffset dy="5"/>
<feGaussianBlur stdDeviation="15"/>
<feColorMatrix type="matrix" values="0 0 0 0 0 0 0 0 0 0 0 0 0 0 0 0 0 0 0.05 0"/>
<feBlend mode="normal" in2="BackgroundImageFix" result="effect1_dropShadow_1_324"/>
<feBlend mode="normal" in="SourceGraphic" in2="effect1_dropShadow_1_324" result="shape"/>
</filter>
</defs>
</svg>

<svg width="100" height="100" fill="none" xmlns="http://www.w3.org/2000/svg"><g filter="url(#a)"><rect x="30" y="25" width="40" height="40" rx="10" fill="#FF4267"/></g><path d="M50.367 46.682v1.297c.472-.08.708-.285.708-.615 0-.351-.387-.535-.708-.682zM48.982 44.203c0 .368.333.533.672.682v-1.224c-.448.066-.672.247-.672.542z" fill="#fff"/><path d="m54 39-2-2-2 2-2-2-2 2-2.667-2v15.333c0 .369.299.667.667.667h12a.667.667 0 0 0 .667-.667V37L54 39zm-3.633 10.219v1.068h-.713V49.24c-.847-.017-1.59-.167-2.23-.448v-1.375c.6.297 1.553.557 2.23.599v-1.615c-1.193-.462-2.24-.911-2.24-2.198 0-1.168 1.073-1.718 2.24-1.833v-.797h.713v.776c.795.034 1.514.194 2.156.479l-.49 1.219a5.634 5.634 0 0 0-1.666-.406v1.536c1.266.487 2.276.93 2.276 2.11 0 1.243-1.032 1.818-2.276 1.932z" fill="#fff"/><defs><filter id="a" x="0" y="0" width="100" height="100" filterUnits="userSpaceOnUse" color-interpolation-filters="sRGB"><feFlood flood-opacity="0" result="BackgroundImageFix"/><feColorMatrix in="SourceAlpha" values="0 0 0 0 0 0 0 0 0 0 0 0 0 0 0 0 0 0 127 0" result="hardAlpha"/><feOffset dy="5"/><feGaussianBlur stdDeviation="15"/><feColorMatrix values="0 0 0 0 0 0 0 0 0 0 0 0 0 0 0 0 0 0 0.05 0"/><feBlend in2="BackgroundImageFix" result="effect1_dropShadow_1_362"/><feBlend in="SourceGraphic" in2="effect1_dropShadow_1_362" result="shape"/></filter></defs></svg>
